X: 2252
T: Babes In The Wood
R: polka
M: 2/4
K: Dmajor
c/B/|AB/A/ FA|de f2|ga/g/ fe|df AF/G/|
AB/A/ FA|de fe/f/|ga/g/ fe|d2 e/d/c/B/|
A2 FA|de f2|g2 f>e|df A2|
AB/A/ F/G/A|de fe/f/|g/a/g/f/ e/d/c|d3||
c/d/|ef/e/ f/e/d|ce a2|ef/e/ ef|ge cA|
e>e f/e/d/B/|ce a>f|ga/g/ fe|d2 dc/d/|
e>e f>d|ce a2|ef/e/ ef|g/f/e/d/ c/B/A/c/|
ef/e/ f>d/|ce a>f|ga/g/ fe|d3||

